X: 17
M:2/4
L:1/16
K:C
uE2|\
|:vgcac g2"0"(eg) | gc"4"ec Bdd"4"e | gcac g2"4"(ec) | \
gcac g2"0"(eg) | gc"4"ec Bddg | "4"eccG "4"A2(GE) | \


